X:1
T:Idumea
C:Ananias Davisson
M:3/2
L:1/2
Q:1/2=100
K:Amin
%%MIDI program 1 41 % Viola
%%MIDI program 2 41 % Viola
%%MIDI program 3 41 % Viola
%%MIDI program 4 41 % Viola
V:Treble
z2 c|e2 d|c2 d|e2 e|d2 (e/d/)|e2 (d/c/)|A2 A|c2 (c/B/)|A2 (c/d/)|e2 (B/A/)|G2 g|e2 (e/d/)|c2 d|e3||
V:Alto
z2 A|c2 (B/A/)|G2 G|A2 c|B2 (A/B/)|c2 (B/G/)|c2 c|G2 (A/B/)|c2 G|c2 (B/c/)|d2 c|c2 (G/F/)|E2G|E3||
V:Tenor clef=treble-8
z2 A|A2 (G/A/)|c2 (d/c/)|A2 e|g2 (e/d/)|c2 d|e2 e|g2 (e/d/)|e2 (d/c/)|A2 (G/E/)|G2 G|A2 (G/A/)|c2 (d/c/)|A3||
V:Bass
z2 A,|A,2D,|E,2E,|A,,2A,|G,2(C/B,/)|A,2G,|E,2 A,|G,2(A,/B,/)|A,2E,|A,,2C,|G,2 C,|A,,2 (C,/D,/)|E,2E,|A,,3||


